app/images/taxplorer-logo.svg

<svg fill="none" height="56" viewBox="0 0 47 56" width="47" xmlns="http://www.w3.org/2000/svg"><g stroke="#021978" stroke-miterlimit="10"><path d="m25.856 35.9414 7.0173-5.1831 11.5358 15.6182c.6873.9306.9768 2.0961.8048 3.2401s-.7914 2.1728-1.722 2.8601c-.9305.6874-2.096.9769-3.24.8049s-2.1728-.7914-2.8602-1.722z" fill="#b8bedb" stroke-width="2"/><path d="m26.2297 27.215-1.8098 1.3368 4.1458 5.6129 1.8099-1.3367z" fill="#021978" stroke-width=".5"/><path d="m16.7338 31.2467c8.2807 0 14.9936-6.7129 14.9936-14.9936 0-8.28073-6.7129-14.99358-14.9936-14.99358-8.28072 0-14.99357 6.71285-14.99357 14.99358 0 8.2807 6.71285 14.9936 14.99357 14.9936z" fill="#b8bedb" stroke-width="2"/></g><path d="m35.4194 33.5337-7.6562 5.655 1.4491 1.962 7.6562-5.655z" fill="#021978"/><path d="m26.1315 15.4998-18.50113 3.1839 8.45863 11.5151c3.0037.2564 6.0047-.5233 8.5037-2.2095 2.4991-1.6861 4.3455-4.177 5.2322-7.0583z" fill="#021978" fill-opacity=".5"/><path d="m20.65 19.6493-3.9083-3.4943c.6684-.9386 1.4732-1.7721 2.3879-2.4729 1.1425-.8664 2.4286-1.5247 3.7995-1.9448.8169.7915 1.5643 1.6517 2.234 2.571.2866.3953.5466.796.7801 1.1568-1.0342.5994-2.0222 1.2752-2.9557 2.0218-.8267.6677-1.6076 1.3901-2.3375 2.1624z" fill="#3c905f" stroke="#285c3e" stroke-miterlimit="10" stroke-width=".3"/><path d="m24.0678 14.9667c-.1225-.3078-.2844-.5984-.4817-.8646-.2309-.3104-.506-.5854-.8164-.8163-.0532.08-.1246.1463-.2083.1936s-.1773.0742-.2733.0785c-.1106-.0003-.2188-.0319-.3121-.0911-.0934-.0593-.168-.1437-.2153-.2437-1.9164.8648-3.5121 2.3106-4.5612 4.1326.0886.0226.1695.0687.2339.1336.0645.0649.1101.1461.1321.2348.0195.1285-.0087.2597-.0792.3688s-.1785.1887-.3037.2237l1.2812 1.3775c.0136-.0557.038-.1081.0719-.1543.0339-.0463.0765-.0854.1255-.1151.0489-.0297.1033-.0495.1599-.0583.0566-.0087.1144-.0062.1701.0074s.1081.038.1543.0719c.0462.0338.0853.0765.1151.1255.0297.0489.0495.1033.0583.1599.0087.0566.0062.1144-.0074.1701.6169-.8539 1.326-1.6373 2.1144-2.336.7491-.6632 1.567-1.2445 2.4396-1.7339-.0574-.0586-.101-.1291-.1276-.2066-.0267-.0775-.0358-.1599-.0266-.2414.0153-.0955.0567-.185.1196-.2585.0628-.0735.1448-.1282.2369-.1581z" fill="#285c3e" stroke="#285c3e" stroke-miterlimit="10" stroke-width=".5"/><path d="m20.2521 17.532c.6697 0 1.2125-.5429 1.2125-1.2125 0-.6697-.5428-1.2126-1.2125-1.2126s-1.2125.5429-1.2125 1.2126c0 .6696.5428 1.2125 1.2125 1.2125z" fill="#3c905f"/><path d="m18.2198 18.4422c.2535 0 .459-.2055.459-.459s-.2055-.459-.459-.459-.4591.2055-.4591.459.2056.459.4591.459z" fill="#575756"/><path d="m22.4825 15.2725c.2535 0 .459-.2055.459-.459s-.2055-.459-.459-.459c-.2536 0-.4591.2055-.4591.459s.2055.459.4591.459z" fill="#3c905f"/><path d="m22.306 13.3227c.2367 0 .4285-.1524.4285-.3404s-.1918-.3405-.4285-.3405-.4286.1525-.4286.3405.1919.3404.4286.3404z" fill="#3c905f"/><path d="m24.3405 15.8774c.1964 0 .3557-.1608.3557-.3591s-.1593-.3591-.3557-.3591-.3556.1608-.3556.3591.1592.3591.3556.3591z" fill="#3c905f"/><path d="m20.5982 16.8979-.822-1.0881.0697-.0526.822 1.088zm-.3408-.9389c-.0376-.0392-.0836-.057-.1378-.0534-.0543.0036-.1077.0253-.1604.0651-.0386.0291-.0676.0608-.0871.0951-.0192.0341-.0286.0682-.0283.1022.0007.0338.0115.0646.0324.0923.0176.0233.0382.0391.0619.0474.0237.0079.0486.0107.0745.0085.0257-.0025.0508-.0075.0755-.015.0244-.0077.0462-.0156.0656-.0235l.1064-.043c.0272-.0112.0586-.022.0943-.0325.0359-.0107.0735-.0166.1127-.0178.0393-.0016.0779.0053.1158.0207s.0723.0436.1031.0844c.0355.047.0553.0988.0594.1554.0043.0564-.0086.1135-.0388.1714-.0298.0577-.0782.1119-.145.1624-.0624.0471-.1239.0778-.1848.0921-.0605.0142-.1174.0131-.1706-.0032-.053-.0165-.0992-.0473-.1385-.0923l.1088-.0822c.0276.0307.0592.0496.0948.0565.0356.0065.0722.0038.1099-.0082.0377-.0125.0739-.0318.1084-.0579.0403-.0304.0715-.0642.0937-.1015.0219-.0375.0334-.075.0343-.1127.0007-.0379-.0109-.0727-.0349-.1045-.0218-.0289-.0477-.0463-.0775-.0522-.0299-.006-.0622-.0046-.0972.0039-.0349.0086-.0708.0202-.1079.0348l-.1302.0503c-.0828.0319-.1577.0446-.2247.0383-.0671-.0063-.1228-.0388-.1671-.0974-.0368-.0487-.0558-.1012-.0568-.1574-.001-.0566.0133-.112.0429-.1659.0296-.0544.0722-.1026.1277-.1446.0561-.0424.1136-.07.1724-.0828.0587-.0132.1138-.0121.1654.0032.0519.0151.0951.0441.1297.0869z" fill="#285c3e"/><path d="m20.7455 19.5724c-1.2912 1.3681-2.3649 2.9259-3.1839 4.6194-1.1434-1.5816-2.61-2.902-4.3025-3.8736s-3.57228-1.5722-5.51461-1.762c-.16715-.6527-.60494-2.7275.51208-4.7254.29943-.533.68188-1.0149 1.13295-1.4275 4.36048 1.3204 8.28258 3.7957 11.35068 7.1638z" fill="#3c905f" stroke="#285c3e" stroke-miterlimit="10" stroke-width=".3"/><path d="m17.7032 21.4365c.1498-.2378.3162-.4993.5017-.7609.1855-.2615.3519-.4755.5231-.6895-.1628-.1124-.284-.2754-.3448-.4637-.0344-.1314-.0394-.2687-.0148-.4023.0247-.1335.0784-.26.1575-.3705-2.1493-2.0641-4.7107-3.6507-7.5161-4.6556-.0311.1331-.0916.2576-.1772.3642-.0856.1065-.1941.1926-.3174.2516-.1474.0635-.3094.0857-.4685.0644-.15913-.0214-.30947-.0855-.435-.1856-.24366.2608-.43211.5681-.55402.9035-.14816.4134-.18987.8574-.12127 1.2911.18368.0026.36284.0574.51652.1581.15369.1006.27556.2429.35137.4102.09254.2288.09254.4846 0 .7133 2.4769.6087 4.7469 1.8661 6.5769 3.6428.157-.2152.3914-.361.6538-.4066.2317-.033.4677.0148.6682.1355z" fill="#285c3e" stroke="#285c3e" stroke-miterlimit="10" stroke-width=".5"/><path d="m17.2724 20.7107c.293 0 .5306-.2376.5306-.5306 0-.2931-.2376-.5307-.5306-.5307-.2931 0-.5307.2376-.5307.5307 0 .293.2376.5306.5307.5306z" fill="#3c905f"/><path d="m14.2957 19.1159c.7723 0 1.3983-.6261 1.3983-1.3983s-.626-1.3983-1.3983-1.3983c-.7722 0-1.3982.6261-1.3982 1.3983s.626 1.3983 1.3982 1.3983z" fill="#3c905f"/><path d="m10.8226 16.7547c.2931 0 .5307-.2376.5307-.5307s-.2376-.5306-.5307-.5306c-.293 0-.5306.2375-.5306.5306s.2376.5307.5306.5307z" fill="#3c905f"/><path d="m13.7768 18.4957.9168-1.5701.1006.0587-.9168 1.5701zm.9803-.9014c.0289-.0664.0273-.1321-.005-.197s-.0865-.1196-.1625-.164c-.0556-.0325-.1095-.0519-.1618-.0582-.0518-.0062-.0985-.0003-.1402.0176-.0413.0181-.0736.0472-.097.0873-.0196.0335-.0284.067-.0266.1004.0025.0333.0118.0653.0278.096.0163.0304.0354.0588.0572.0852.0221.0261.043.049.0627.0687l.1075.1088c.0277.0277.0572.0608.0884.0994.0317.0387.0583.0819.0798.1296.0222.0475.0335.0985.034.1531.0005.0545-.0165.1113-.0509.1701-.0396.0679-.0932.1189-.1608.1529-.0671.0342-.1441.0477-.2308.0404-.0863-.0071-.1777-.0388-.2742-.0952-.09-.0525-.1594-.1125-.2083-.18-.0485-.0672-.0763-.1377-.0836-.2116-.0069-.0737.0072-.1463.0424-.2179l.157.0917c-.0236.0498-.0305.0984-.0209.1457.0103.0471.0325.0908.0666.131.0348.04.0771.0746.127.1037.058.0339.1157.055.1729.0632.0574.0077.1095.0025.1563-.0157.047-.0186.0839-.0508.1107-.0966.0243-.0417.0325-.0824.0245-.1222-.0081-.0398-.0263-.0789-.0548-.1175-.0285-.0385-.0612-.0769-.0982-.1149l-.1288-.1344c-.0816-.0855-.1358-.1712-.1625-.2569-.0267-.0858-.0153-.171.0341-.2556.0411-.0703.0959-.1206.1645-.1507.0692-.0303.1446-.0411.2262-.0324.0822.0085.1633.0361.2435.0829.0809.0473.1444.1038.1904.1696.0463.0654.0733.1338.0809.2052.0081.0716-.0053.1397-.0403.2043z" fill="#285c3e"/></svg>

<svg width="47" height="56" viewBox="0 0 47 56" fill="none" xmlns="http://www.w3.org/2000/svg">
<path d="M25.856 35.9414L32.8733 30.7583L44.4091 46.3765C45.0964 47.3071 45.3859 48.4726 45.2139 49.6166C45.0419 50.7606 44.4225 51.7894 43.4919 52.4767C42.5614 53.1641 41.3959 53.4536 40.2519 53.2816C39.1079 53.1096 38.0791 52.4902 37.3917 51.5596L25.856 35.9414Z" fill="#B8BEDB" stroke="#021978" stroke-width="2" stroke-miterlimit="10"/>
<path d="M26.2297 27.215L24.4199 28.5518L28.5657 34.1647L30.3756 32.828L26.2297 27.215Z" fill="#021978" stroke="#021978" stroke-width="0.5" stroke-miterlimit="10"/>
<path d="M16.7338 31.2467C25.0145 31.2467 31.7274 24.5338 31.7274 16.2531C31.7274 7.97237 25.0145 1.25952 16.7338 1.25952C8.45308 1.25952 1.74023 7.97237 1.74023 16.2531C1.74023 24.5338 8.45308 31.2467 16.7338 31.2467Z" fill="#B8BEDB" stroke="#021978" stroke-width="2" stroke-miterlimit="10"/>
<path d="M35.4194 33.5337L27.7632 39.1887L29.2123 41.1507L36.8685 35.4957L35.4194 33.5337Z" fill="#021978"/>
<path d="M26.1315 15.4998L7.63037 18.6837L16.089 30.1988C19.0927 30.4552 22.0937 29.6755 24.5927 27.9893C27.0918 26.3032 28.9382 23.8123 29.8249 20.931L26.1315 15.4998Z" fill="#021978" fill-opacity="0.5"/>
<path d="M20.65 19.6493L16.7417 16.155C17.4101 15.2164 18.2149 14.3829 19.1296 13.6821C20.2721 12.8157 21.5582 12.1574 22.9291 11.7373C23.746 12.5288 24.4934 13.389 25.1631 14.3083C25.4497 14.7036 25.7097 15.1043 25.9432 15.4651C24.909 16.0645 23.921 16.7403 22.9875 17.4869C22.1608 18.1546 21.3799 18.877 20.65 19.6493Z" fill="#3C905F" stroke="#285C3E" stroke-width="0.3" stroke-miterlimit="10"/>
<path d="M24.0678 14.9667C23.9453 14.6589 23.7834 14.3683 23.5861 14.1021C23.3552 13.7917 23.0801 13.5167 22.7697 13.2858C22.7165 13.3658 22.6451 13.4321 22.5614 13.4794C22.4777 13.5267 22.3841 13.5536 22.2881 13.5579C22.1775 13.5576 22.0693 13.526 21.976 13.4668C21.8826 13.4075 21.808 13.3231 21.7607 13.2231C19.8443 14.0879 18.2486 15.5337 17.1995 17.3557C17.2881 17.3783 17.369 17.4244 17.4334 17.4893C17.4979 17.5542 17.5435 17.6354 17.5655 17.7241C17.585 17.8526 17.5568 17.9838 17.4863 18.0929C17.4158 18.202 17.3078 18.2816 17.1826 18.3166L18.4638 19.6941C18.4774 19.6384 18.5018 19.586 18.5357 19.5398C18.5696 19.4935 18.6122 19.4544 18.6612 19.4247C18.7101 19.395 18.7645 19.3752 18.8211 19.3664C18.8777 19.3577 18.9355 19.3602 18.9912 19.3738C19.0469 19.3874 19.0993 19.4118 19.1455 19.4457C19.1917 19.4795 19.2308 19.5222 19.2606 19.5712C19.2903 19.6201 19.3101 19.6745 19.3189 19.7311C19.3276 19.7877 19.3251 19.8455 19.3115 19.9012C19.9284 19.0473 20.6375 18.2639 21.4259 17.5652C22.175 16.902 22.9929 16.3207 23.8655 15.8313C23.8081 15.7727 23.7645 15.7022 23.7379 15.6247C23.7112 15.5472 23.7021 15.4648 23.7113 15.3833C23.7266 15.2878 23.768 15.1983 23.8309 15.1248C23.8937 15.0513 23.9757 14.9966 24.0678 14.9667Z" fill="#285C3E" stroke="#285C3E" stroke-width="0.5" stroke-miterlimit="10"/>
<path d="M20.2521 17.532C20.9218 17.532 21.4646 16.9891 21.4646 16.3195C21.4646 15.6498 20.9218 15.1069 20.2521 15.1069C19.5824 15.1069 19.0396 15.6498 19.0396 16.3195C19.0396 16.9891 19.5824 17.532 20.2521 17.532Z" fill="#3C905F"/>
<path d="M18.2198 18.4422C18.4733 18.4422 18.6788 18.2367 18.6788 17.9832C18.6788 17.7297 18.4733 17.5242 18.2198 17.5242C17.9663 17.5242 17.7607 17.7297 17.7607 17.9832C17.7607 18.2367 17.9663 18.4422 18.2198 18.4422Z" fill="#575756"/>
<path d="M22.4825 15.2725C22.736 15.2725 22.9415 15.067 22.9415 14.8135C22.9415 14.56 22.736 14.3545 22.4825 14.3545C22.2289 14.3545 22.0234 14.56 22.0234 14.8135C22.0234 15.067 22.2289 15.2725 22.4825 15.2725Z" fill="#3C905F"/>
<path d="M22.306 13.3227C22.5427 13.3227 22.7345 13.1703 22.7345 12.9823C22.7345 12.7943 22.5427 12.6418 22.306 12.6418C22.0693 12.6418 21.8774 12.7943 21.8774 12.9823C21.8774 13.1703 22.0693 13.3227 22.306 13.3227Z" fill="#3C905F"/>
<path d="M24.3405 15.8774C24.5369 15.8774 24.6962 15.7166 24.6962 15.5183C24.6962 15.32 24.5369 15.1592 24.3405 15.1592C24.1441 15.1592 23.9849 15.32 23.9849 15.5183C23.9849 15.7166 24.1441 15.8774 24.3405 15.8774Z" fill="#3C905F"/>
<path d="M20.5982 16.8979L19.7762 15.8098L19.8459 15.7572L20.6679 16.8452L20.5982 16.8979ZM20.2574 15.959C20.2198 15.9198 20.1738 15.902 20.1196 15.9056C20.0653 15.9092 20.0119 15.9309 19.9592 15.9707C19.9206 15.9998 19.8916 16.0315 19.8721 16.0658C19.8529 16.0999 19.8435 16.134 19.8438 16.168C19.8445 16.2018 19.8553 16.2326 19.8762 16.2603C19.8938 16.2836 19.9144 16.2994 19.9381 16.3077C19.9618 16.3156 19.9867 16.3184 20.0126 16.3162C20.0383 16.3137 20.0634 16.3087 20.0881 16.3012C20.1125 16.2935 20.1343 16.2856 20.1537 16.2777L20.2601 16.2347C20.2873 16.2235 20.3187 16.2127 20.3544 16.2022C20.3903 16.1915 20.4279 16.1856 20.4671 16.1844C20.5064 16.1828 20.545 16.1897 20.5829 16.2051C20.6208 16.2205 20.6552 16.2487 20.686 16.2895C20.7215 16.3365 20.7413 16.3883 20.7454 16.4449C20.7497 16.5013 20.7368 16.5584 20.7066 16.6163C20.6768 16.674 20.6284 16.7282 20.5616 16.7787C20.4992 16.8258 20.4377 16.8565 20.3768 16.8708C20.3163 16.885 20.2594 16.8839 20.2062 16.8676C20.1532 16.8511 20.107 16.8203 20.0677 16.7753L20.1765 16.6931C20.2041 16.7238 20.2357 16.7427 20.2713 16.7496C20.3069 16.7561 20.3435 16.7534 20.3812 16.7414C20.4189 16.7289 20.4551 16.7096 20.4896 16.6835C20.5299 16.6531 20.5611 16.6193 20.5833 16.582C20.6052 16.5445 20.6167 16.507 20.6176 16.4693C20.6183 16.4314 20.6067 16.3966 20.5827 16.3648C20.5609 16.3359 20.535 16.3185 20.5052 16.3126C20.4753 16.3066 20.443 16.308 20.408 16.3165C20.3731 16.3251 20.3372 16.3367 20.3001 16.3513L20.1699 16.4016C20.0871 16.4335 20.0122 16.4462 19.9452 16.4399C19.8781 16.4336 19.8224 16.4011 19.7781 16.3425C19.7413 16.2938 19.7223 16.2413 19.7213 16.1851C19.7203 16.1285 19.7346 16.0731 19.7642 16.0192C19.7938 15.9648 19.8364 15.9166 19.8919 15.8746C19.948 15.8322 20.0055 15.8046 20.0643 15.7918C20.123 15.7786 20.1781 15.7797 20.2297 15.795C20.2816 15.8101 20.3248 15.8391 20.3594 15.8819L20.2574 15.959Z" fill="#285C3E"/>
<path d="M20.7455 19.5724C19.4543 20.9405 18.3806 22.4983 17.5616 24.1918C16.4182 22.6102 14.9516 21.2898 13.2591 20.3182C11.5666 19.3466 9.68682 18.746 7.74449 18.5562C7.57734 17.9035 7.13955 15.8287 8.25657 13.8308C8.556 13.2978 8.93845 12.8159 9.38952 12.4033C13.75 13.7237 17.6721 16.199 20.7402 19.5671L20.7455 19.5724Z" fill="#3C905F" stroke="#285C3E" stroke-width="0.3" stroke-miterlimit="10"/>
<path d="M17.7032 21.4365C17.853 21.1987 18.0194 20.9372 18.2049 20.6756C18.3904 20.4141 18.5568 20.2001 18.728 19.9861C18.5652 19.8737 18.444 19.7107 18.3832 19.5224C18.3488 19.391 18.3438 19.2537 18.3684 19.1201C18.3931 18.9866 18.4468 18.8601 18.5259 18.7496C16.3766 16.6855 13.8152 15.0989 11.0098 14.094C10.9787 14.2271 10.9182 14.3516 10.8326 14.4582C10.747 14.5647 10.6385 14.6508 10.5152 14.7098C10.3678 14.7733 10.2058 14.7955 10.0467 14.7742C9.88757 14.7528 9.73723 14.6887 9.6117 14.5886C9.36804 14.8494 9.17959 15.1567 9.05768 15.4921C8.90952 15.9055 8.86781 16.3495 8.93641 16.7832C9.12009 16.7858 9.29925 16.8406 9.45293 16.9413C9.60662 17.0419 9.72849 17.1842 9.8043 17.3515C9.89684 17.5803 9.89684 17.8361 9.8043 18.0648C12.2812 18.6735 14.5512 19.9309 16.3812 21.7076C16.5382 21.4924 16.7726 21.3466 17.035 21.301C17.2667 21.268 17.5027 21.3158 17.7032 21.4365Z" fill="#285C3E" stroke="#285C3E" stroke-width="0.5" stroke-miterlimit="10"/>
<path d="M17.2724 20.7107C17.5654 20.7107 17.803 20.4731 17.803 20.1801C17.803 19.887 17.5654 19.6494 17.2724 19.6494C16.9793 19.6494 16.7417 19.887 16.7417 20.1801C16.7417 20.4731 16.9793 20.7107 17.2724 20.7107Z" fill="#3C905F"/>
<path d="M14.2957 19.1159C15.068 19.1159 15.694 18.4898 15.694 17.7176C15.694 16.9454 15.068 16.3193 14.2957 16.3193C13.5235 16.3193 12.8975 16.9454 12.8975 17.7176C12.8975 18.4898 13.5235 19.1159 14.2957 19.1159Z" fill="#3C905F"/>
<path d="M10.8226 16.7547C11.1157 16.7547 11.3533 16.5171 11.3533 16.224C11.3533 15.9309 11.1157 15.6934 10.8226 15.6934C10.5296 15.6934 10.292 15.9309 10.292 16.224C10.292 16.5171 10.5296 16.7547 10.8226 16.7547Z" fill="#3C905F"/>
<path d="M13.7768 18.4957L14.6936 16.9256L14.7942 16.9843L13.8774 18.5544L13.7768 18.4957ZM14.7571 17.5943C14.786 17.5279 14.7844 17.4622 14.7521 17.3973C14.7198 17.3324 14.6656 17.2777 14.5896 17.2333C14.534 17.2008 14.4801 17.1814 14.4278 17.1751C14.376 17.1689 14.3293 17.1748 14.2876 17.1927C14.2463 17.2108 14.214 17.2399 14.1906 17.28C14.171 17.3135 14.1622 17.347 14.164 17.3804C14.1665 17.4137 14.1758 17.4457 14.1918 17.4764C14.2081 17.5068 14.2272 17.5352 14.249 17.5616C14.2711 17.5877 14.292 17.6106 14.3117 17.6303L14.4192 17.7391C14.4469 17.7668 14.4764 17.7999 14.5076 17.8385C14.5393 17.8772 14.5659 17.9204 14.5874 17.9681C14.6096 18.0156 14.6209 18.0666 14.6214 18.1212C14.6219 18.1757 14.6049 18.2325 14.5705 18.2913C14.5309 18.3592 14.4773 18.4102 14.4097 18.4442C14.3426 18.4784 14.2656 18.4919 14.1789 18.4846C14.0926 18.4775 14.0012 18.4458 13.9047 18.3894C13.8147 18.3369 13.7453 18.2769 13.6964 18.2094C13.6479 18.1422 13.6201 18.0717 13.6128 17.9978C13.6059 17.9241 13.62 17.8515 13.6552 17.7799L13.8122 17.8716C13.7886 17.9214 13.7817 17.97 13.7913 18.0173C13.8016 18.0644 13.8238 18.1081 13.8579 18.1483C13.8927 18.1883 13.935 18.2229 13.9849 18.252C14.0429 18.2859 14.1006 18.307 14.1578 18.3152C14.2152 18.3229 14.2673 18.3177 14.3141 18.2995C14.3611 18.2809 14.398 18.2487 14.4248 18.2029C14.4491 18.1612 14.4573 18.1205 14.4493 18.0807C14.4412 18.0409 14.423 18.0018 14.3945 17.9632C14.366 17.9247 14.3333 17.8863 14.2963 17.8483L14.1675 17.7139C14.0859 17.6284 14.0317 17.5427 14.005 17.457C13.9783 17.3712 13.9897 17.286 14.0391 17.2014C14.0802 17.1311 14.135 17.0808 14.2036 17.0507C14.2728 17.0204 14.3482 17.0096 14.4298 17.0183C14.512 17.0268 14.5931 17.0544 14.6733 17.1012C14.7542 17.1485 14.8177 17.205 14.8637 17.2708C14.91 17.3362 14.937 17.4046 14.9446 17.476C14.9527 17.5476 14.9393 17.6157 14.9043 17.6803L14.7571 17.5943Z" fill="#285C3E"/>
</svg>
